X:1
T: Miss Brown
C:
R:Reel
Q: 232
K:D
M:4/4
L:1/8
|:((3GFE) |D2 D2 DF AF|dF AF dF AF|E2 E2 EG BG|ed cB AG FE|
D2 D2 DF AF|dF AF GF ED|FA dg fa eg|f2 d2 d2:|
|:ag|fd dd fd ad|fg af d2 ed|cA AA cA eA|cd ef g2 ag|
fd dd fd ad|fg af d2 ef|gb ag fe dc|e2 d2 d2:|
